X:128
T:Sweet Susan of the Garrett TS.128
M:C
L:1/8
Q:1/2=60
S:Thomas Sands’ MS,1810,Lincolnshire
R:country dance
O:England;Lincolnshire
Z:vmp.Ruairidh Greig, 2011
K:G
g3d BGAB|cBAG FDEF|GABc dBed|cBAG FABc|
dBgd BGAB|cBAG FDEF|GABc dBec|BAGFG2z2||
cBAG FGAc|BABc dBcd|edcB cBAG|FGAF DEFD|
GDGB AFAc|BGBd cGce|dgfg fedc|BdFAG2z2|]

